X: 36529
T: Set Américain
R: reel
M: 4/4
K: Bminor
B3 c dcde|f2 fg fedc|BABc dcBA|FABA G2 F2|
BABc dcde|f2 fg fedc|BABc dcBA|1 Bbfd B2 z2:|2 Bbfd B2 (3gfe||
dAFA DAFA|EAFA EAFA|dAFA defd|edcB ABcA|
dAFA DAFA|EAFA EAFA|dfec dABc|1 dfec d2 (3ABc:|2 dfec d2 z2||

